modules/themify-icons/icons/mouse.svg

<?xml version="1.0" encoding="utf-8"?>
<!-- Generated by IcoMoon.io -->
<!DOCTYPE svg PUBLIC "-//W3C//DTD SVG 1.1//EN" "http://www.w3.org/Graphics/SVG/1.1/DTD/svg11.dtd">
<svg version="1.1" xmlns="http://www.w3.org/2000/svg" xmlns:xlink="http://www.w3.org/1999/xlink" width="17" height="17" viewBox="0 0 17 17">
<g>
</g>
	<path d="M8.5 0c-3.033 0-5.5 2.467-5.5 5.5v6c0 3.033 2.467 5.5 5.5 5.5s5.5-2.467 5.5-5.5v-6c0-3.033-2.467-5.5-5.5-5.5zM13 11.5c0 2.481-2.019 4.5-4.5 4.5s-4.5-2.019-4.5-4.5v-6c0-2.481 2.019-4.5 4.5-4.5s4.5 2.019 4.5 4.5v6zM8.5 3.5c-0.827 0-1.5 0.673-1.5 1.5v2c0 0.827 0.673 1.5 1.5 1.5s1.5-0.673 1.5-1.5v-2c0-0.827-0.673-1.5-1.5-1.5zM9 7c0 0.276-0.224 0.5-0.5 0.5s-0.5-0.224-0.5-0.5v-2c0-0.276 0.224-0.5 0.5-0.5s0.5 0.224 0.5 0.5v2z" fill="#000000" />
</svg>

<svg xmlns="http://www.w3.org/2000/svg" width="17" height="17" viewBox="0 0 17 17"><path d="M8.5 0A5.506 5.506 0 003 5.5v6C3 14.533 5.467 17 8.5 17s5.5-2.467 5.5-5.5v-6C14 2.467 11.533 0 8.5 0zM13 11.5c0 2.481-2.019 4.5-4.5 4.5S4 13.981 4 11.5v-6C4 3.019 6.019 1 8.5 1S13 3.019 13 5.5v6zm-4.5-8C7.673 3.5 7 4.173 7 5v2c0 .827.673 1.5 1.5 1.5S10 7.827 10 7V5c0-.827-.673-1.5-1.5-1.5zM9 7a.5.5 0 01-1 0V5a.5.5 0 011 0v2z"/></svg>
